X: 24985
T: Maid Of Mount Kisco, The
R: reel
M: 4/4
K: Adorian
|:EA (3A^GA B=GAG|EA (3A^GA B=GAG|EG (3GFG BG (3GFG|EG (3GFG EGDG|
EA (3A^GA B=GAG|EA (3A^GA BABd|egge afge|1 dBGB A3 G:|2 dBGB A2 dB||
A2AB dBAB|G2 BG DGBG|A2 AB (3ded Bd|eage dBGB|
A2AB dBAB|G2BG DGBG|A2 AB d2(3B^cd|eage d2 Bd||
|:ea (3a^ga b=gaf|gedB GABd|ea (3a^ga b=gaf|gede g2 (3efg|
a2 af ~g2 ge|dedB GABd|eA (3A^GA ea=ge|1 dBGB A2 Bd:|2 dBGB A3G||

